X:20
T:Whycocomagh Bay
R:reel
C:Gordon MacQuarrie
O:Cape Breton
B:The Cape Breton Collection 1940
D:John Campbell, Cape Breton Violin Music (1975-2006)
Z:Paul Stewart Cranford (P.S.C.), <http://www.cranfordpub.com>
L:1/8
M:C|
Q:333
K:Dmix
A|FD D/D/D FGAd|cCGF ECGE|FD D/D/D FGAd|cCGE D/D/D DA|
FD D/D/D FGAd|cCGF ECGE|FDAD FGAd|cCGE D/D/D D||
||g|fddc defa|gcge cdeg|fddc defa|cAGE D/D/D Dg|
fddc defa|gcge cdeg|f<adf egce|fage d/d/d d|]
